frontend/public/svg/interface/doc-add.svg

<svg width="138" height="164" viewBox="0 0 138 164" fill="none" xmlns="http://www.w3.org/2000/svg">
<g clip-path="url(#clip0)">
<path d="M137.273 82.6731C137.273 97.0746 137.192 111.477 137.316 125.878C137.257 131.183 136.718 136.472 135.704 141.679C135.347 143.92 134.554 146.067 133.372 148.001C128.405 155.697 121.501 160.577 112.222 161.587C91.9285 163.816 71.4651 164.02 51.1313 162.199C43.2344 161.486 35.2581 161.444 27.5525 159.315C23.8953 158.402 20.3172 157.195 16.8528 155.706C7.92068 151.593 2.80518 144.479 1.61612 134.664C1.24382 131.655 1.05798 128.626 1.0597 125.593C1.16956 96.0342 1.35955 66.4721 1.47716 36.9111C1.53572 30.843 2.38165 24.8081 3.9936 18.9591C5.06955 14.9082 7.15503 11.1985 10.0539 8.17859C13.7055 4.23863 18.7611 1.90489 24.1196 1.68627C34.3048 1.17417 44.4893 0.555227 54.6823 0.33159C64.5004 0.116381 74.3318 0.20618 84.1505 0.425278C90.9404 0.576314 97.7297 1.06494 104.498 1.64639C106.373 1.80781 108.171 2.46665 109.709 3.55497C119.117 10.6031 127.839 18.4143 135.283 27.5847C136.961 29.6493 137.818 32.2648 137.688 34.926C137.483 49.3242 137.407 63.7255 137.289 78.1252C137.277 79.6414 137.289 81.1569 137.289 82.6731H137.273ZM12.4346 82.2031C11.3676 98.0703 11.2946 113.953 11.2714 129.836C11.327 133.244 11.8446 136.628 12.81 139.896C13.3127 141.922 14.2458 143.815 15.5456 145.446C16.8453 147.076 18.4809 148.405 20.3405 149.343C22.3189 150.443 24.4303 151.281 26.6225 151.84C31.769 152.976 36.924 154.064 42.2354 154.358C62.9438 155.614 83.7078 155.647 104.421 154.461C107.053 154.297 109.695 154.112 112.299 153.717C115.3 153.231 118.098 151.891 120.362 149.857C123.238 147.384 125.384 144.168 126.566 140.557C128.419 135.061 128.44 129.409 128.44 123.727C128.436 99.1412 128.433 74.5554 128.429 49.9699C128.429 46.944 128.419 43.9174 128.343 40.8948C128.278 38.3097 126.856 37.0385 123.956 36.9529C118.679 36.7974 113.397 36.7644 108.124 36.5168C106.252 36.3846 104.403 36.0369 102.611 35.4799C101.691 35.2431 100.858 34.746 100.212 34.0479C99.5656 33.3499 99.1326 32.4802 98.9652 31.5424C98.6395 29.6826 98.4787 27.7973 98.4845 25.9091C98.4328 21.3774 98.4903 16.8447 98.5135 12.3117C98.5174 11.5066 97.2721 9.87181 96.5981 9.77134C95.8627 9.61077 95.1176 9.49863 94.368 9.43647C76.2698 9.17718 58.1709 8.93773 40.0717 8.71733C37.0616 8.68557 34.0477 9.00021 31.0343 9.13893C27.2125 9.31395 23.6078 10.4447 20.0872 11.8021C17.5891 12.7598 15.5153 14.5826 14.2408 16.941C12.5839 19.9487 11.451 23.117 11.8394 26.6744C12.2497 30.4341 12.8578 34.2003 12.8514 37.9633C12.8242 52.7077 12.5903 67.4555 12.4346 82.2031ZM109.153 17.6361C108.763 18.231 108.471 18.8854 108.288 19.5737C108.115 21.4244 108.067 23.2916 108.076 25.1527C108.05 25.6143 108.116 26.0764 108.272 26.5118C108.427 26.9471 108.668 27.3469 108.98 27.6873C109.292 28.0277 109.669 28.3018 110.088 28.4938C110.508 28.6857 110.961 28.7914 111.422 28.8046C114.007 28.8467 116.596 28.7453 119.181 28.6545C119.332 28.6178 119.473 28.5454 119.592 28.4431C119.711 28.3408 119.803 28.2112 119.863 28.0658C119.927 27.8918 119.956 27.7068 119.948 27.5215C119.94 27.336 119.895 27.1537 119.816 26.9859C117.188 23.3864 113.949 20.2785 110.247 17.8044C109.975 17.6151 109.523 17.6866 109.153 17.6361Z" fill="black"/>
<path d="M52.6302 92.2501C56.3899 92.2501 60.1496 92.2806 63.9087 92.2346C64.6521 92.1568 65.3483 91.8333 65.8872 91.3134C66.4255 90.7936 66.7757 90.1084 66.8811 89.3662C67.1228 84.4663 67.2636 79.5612 67.5557 74.6652C67.6029 72.7853 67.9073 70.9211 68.4604 69.1242C68.6349 68.5836 68.9684 68.1091 69.4175 67.7636C69.8673 67.4174 70.4108 67.2171 70.9762 67.1886C71.5416 67.1601 72.1026 67.3046 72.5847 67.6035C73.0661 67.9016 73.4461 68.3405 73.6729 68.861C74.2707 70.2404 74.597 71.7223 74.6338 73.2255C74.9234 76.9903 75.0448 80.7688 75.2697 84.5389C75.3376 85.6674 75.5095 86.7908 75.6626 87.9096C76.0271 90.581 77.5619 92.1717 80.0376 92.1574C83.7973 92.1354 87.5558 91.8981 91.3155 91.8612C94.3108 91.834 97.3616 91.7691 100.104 93.2309C100.583 93.4856 100.758 94.4366 100.925 95.1042C100.954 95.2922 100.939 95.4847 100.882 95.6662C100.825 95.8471 100.727 96.0131 100.595 96.1505C100.072 96.6898 99.4199 97.0846 98.7 97.2972C96.4718 97.6018 94.219 97.7788 91.9708 97.8773C87.835 98.0575 83.6952 98.1113 79.56 98.2896C78.6236 98.3881 77.7538 98.8218 77.1089 99.5102C76.4646 100.199 76.0885 101.098 76.0497 102.042C75.7266 107.696 75.5043 113.355 75.1625 119.007C75.0494 120.876 74.7185 122.734 74.4367 124.589C74.25 125.82 72.2137 127.291 71.0951 127.104C69.8841 126.901 68.138 125.324 67.9835 124.155C67.738 122.293 67.4665 120.423 67.4019 118.55C67.2009 112.893 67.1118 107.232 66.936 101.573C66.8681 100.825 66.5515 100.122 66.0371 99.577C65.5227 99.0312 64.84 98.6746 64.0993 98.5651C59.5912 98.3278 55.0794 98.1625 50.5719 97.9169C47.5702 97.7516 44.5704 97.5286 41.5752 97.2622C40.0242 97.1254 38.2665 95.2806 38.7531 94.3452C38.9801 93.8422 39.3439 93.4137 39.8027 93.1084C40.2615 92.8037 40.7968 92.6339 41.3471 92.6203C45.1061 92.5872 48.8659 92.6086 52.625 92.6086L52.6302 92.2501Z" fill="black"/>
</g>
<defs>
<clipPath id="clip0">
<rect width="137" height="164" fill="white" transform="translate(0.777344)"/>
</clipPath>
</defs>
</svg>

<svg xmlns="http://www.w3.org/2000/svg" width="138" height="164" fill="none" viewBox="0 0 138 164"><g fill="#000" clip-path="url(#a)"><path d="M137.273 82.673c0 14.402-.081 28.804.043 43.205a88 88 0 0 1-1.612 15.801 17.4 17.4 0 0 1-2.332 6.322c-4.967 7.696-11.871 12.576-21.15 13.586a308 308 0 0 1-61.09.612c-7.898-.713-15.874-.755-23.58-2.884a70 70 0 0 1-10.7-3.609c-8.931-4.113-14.047-11.227-15.236-21.042a74 74 0 0 1-.556-9.071c.11-29.559.3-59.12.417-88.682A70 70 0 0 1 3.994 18.96a24.74 24.74 0 0 1 6.06-10.78A20.3 20.3 0 0 1 24.12 1.686C34.305 1.174 44.49.556 54.682.332 64.5.116 74.332.206 84.15.425c6.79.151 13.58.64 20.348 1.221 1.875.162 3.673.82 5.211 1.909 9.408 7.048 18.13 14.86 25.574 24.03a10.8 10.8 0 0 1 2.405 7.341c-.205 14.398-.281 28.8-.399 43.2-.012 1.515 0 3.03 0 4.547zm-124.838-.47c-1.067 15.867-1.14 31.75-1.164 47.633a37.7 37.7 0 0 0 1.539 10.06 14.5 14.5 0 0 0 2.736 5.55 14.5 14.5 0 0 0 4.794 3.897 26.3 26.3 0 0 0 6.282 2.497c5.147 1.136 10.302 2.224 15.613 2.518a528 528 0 0 0 62.186.103c2.632-.164 5.274-.349 7.878-.744a15.86 15.86 0 0 0 8.063-3.86 20.8 20.8 0 0 0 6.204-9.3c1.853-5.496 1.874-11.148 1.874-16.83l-.011-73.757c0-3.026-.01-6.053-.086-9.075-.065-2.585-1.487-3.857-4.387-3.942-5.277-.156-10.559-.189-15.832-.436a24.4 24.4 0 0 1-5.513-1.037 4.95 4.95 0 0 1-2.399-1.432 4.97 4.97 0 0 1-1.247-2.506 32 32 0 0 1-.48-5.633c-.052-4.532.005-9.064.028-13.597.004-.805-1.24-2.44-1.915-2.54q-1.104-.242-2.23-.336-27.147-.388-54.296-.719c-3.01-.031-6.024.283-9.038.422-3.822.175-7.426 1.306-10.947 2.663a11.2 11.2 0 0 0-5.846 5.139c-1.657 3.008-2.79 6.176-2.402 9.733.41 3.76 1.019 7.526 1.012 11.29-.027 14.744-.26 29.492-.416 44.24m96.718-64.567a6.7 6.7 0 0 0-.865 1.938c-.173 1.85-.221 3.718-.212 5.579a3.45 3.45 0 0 0 .904 2.534 3.46 3.46 0 0 0 2.442 1.118c2.585.042 5.174-.06 7.759-.15a.99.99 0 0 0 .682-.59 1.4 1.4 0 0 0-.047-1.08 38 38 0 0 0-9.569-9.18c-.272-.19-.724-.118-1.094-.169"/><path d="M52.63 92.25c3.76 0 7.52.03 11.279-.015a3.35 3.35 0 0 0 2.972-2.869c.242-4.9.383-9.805.675-14.7.047-1.88.351-3.745.904-5.542a2.8 2.8 0 0 1 .958-1.36 2.785 2.785 0 0 1 4.255 1.097c.598 1.38.924 2.861.96 4.364.29 3.765.412 7.544.637 11.314.068 1.128.24 2.252.393 3.37.364 2.672 1.899 4.263 4.375 4.248 3.76-.022 7.518-.259 11.278-.296 2.995-.027 6.046-.092 8.788 1.37.479.255.654 1.206.821 1.873a1.24 1.24 0 0 1-.33 1.046 4.36 4.36 0 0 1-1.895 1.147 74 74 0 0 1-6.73.58c-4.135.18-8.275.234-12.41.413a3.92 3.92 0 0 0-2.451 1.22 3.94 3.94 0 0 0-1.06 2.532c-.322 5.654-.545 11.313-.887 16.965-.113 1.869-.444 3.727-.725 5.582-.187 1.231-2.223 2.702-3.342 2.515-1.21-.203-2.957-1.78-3.111-2.949-.246-1.862-.517-3.732-.582-5.605-.201-5.657-.29-11.318-.466-16.977a3.35 3.35 0 0 0-2.837-3.008c-4.508-.237-9.02-.403-13.527-.648a268 268 0 0 1-8.997-.655c-1.55-.137-3.309-1.981-2.822-2.917a2.92 2.92 0 0 1 2.594-1.725c3.76-.033 7.519-.011 11.278-.011z"/></g><defs><clipPath id="a"><path fill="#fff" d="M.777 0h137v164h-137z"/></clipPath></defs></svg>
